!!!!SEGMENT: ss022-Japanese_M.krn
!!!OTL: Japanese
!!!OPR:The Remick Folio of Moving Picture Music
!!!YOY:1914
!!!ONB1: National
!!!ONB2: Processional Tune
**kern	**dynam
*clefG2	*
*k[]	*
*C:	*
*M2/4	*
=1	=1
!LO:TX:a:B:t=Moderato	!
8gL	mf
8gJ	.
8gL	.
8fJ	.
=2	=2
8gL	.
8gJ	.
8gL	.
8fJ	.
=3	=3
4g	fz fz
8aL	.
8aJ	.
=4	=4
(8gL	fz
8fJ	>
8dL	.
8cJ)	]]
=5	=5
8d	.
4d	.
8f	.
=6	=6
(8gL	.
8fJ	.
8dL	.
8cJ)	.
=7	=7
8dL	.
8fJ	.
8.gL	.
16fJk	.
=8	=8
2g	.
=9:|!|:	=9:|!|:
8ggL	f
8ggJ	.
8ggL	.
8ffJ	.
=10	=10
8ggL	.
8ggJ	.
8ggL	.
8ffJ	.
=11	=11
4gg	fz fz
8aaL	.
8aaJ	.
=12	=12
(8ggL	fz
8ffJ	.
8ddL	.
8ccJ)	.
=13	=13
8dd	.
4dd	.
8ff	.
=14	=14
(8ggL	.
8ffJ	.
8ddL	.
8ccJ)	.
=15	=15
8ddL	.
8ffJ	.
8.ggL	.
16ffJk	.
=16	=16
2gg	.
=:|!	=:|!
*-	*-
!!!ENC: Yukiko Yoden
!!!END: 2022/03/21